LGiordani22/EM-for-Student-t-/output/forecast_realtime/csv/big/rolling_nowcast_2020-01_2020-12.csv
as_of,target_quarter,horizon_month,method,nowcast_livello,nowcast_z,gdp_realizzato,errore,n_iter,converged
2020-01-15,2019Q4,4,arma22,0.8461641089957013,0.32835371879506225,0.6795635968053659,0.16660051219033534,,True
2020-01-15,2019Q4,4,gaussian,0.46815695895165554,-0.34082021069503393,0.6795635968053659,-0.2114066378537104,28.0,True
2020-01-15,2019Q4,4,random_walk,1.1632102580909631,0.8896103442188362,0.6795635968053659,0.4836466612855972,,True
2020-01-15,2019Q4,4,student_t,0.4812009299628305,-0.31772888732539456,0.6795635968053659,-0.19836266684253545,30.0,True
2020-01-15,2020Q1,1,arma22,0.8296750525728189,0.2991636712554896,-1.3250619707966038,2.1547370233694227,,True
2020-01-15,2020Q1,1,gaussian,0.7307045470069276,0.12395936068773446,-1.3250619707966038,2.0557665178035314,28.0,True
2020-01-15,2020Q1,1,random_walk,1.1632102580909631,0.8896103442188362,-1.3250619707966038,2.488272228887567,,True
2020-01-15,2020Q1,1,student_t,0.711479529505678,0.08992592903352374,-1.3250619707966038,2.036541500302282,30.0,True
2020-02-15,2020Q1,2,arma22,0.7797500545718175,0.21130490607188843,-1.3250619707966038,2.104812025368421,,True
2020-02-15,2020Q1,2,gaussian,0.5712886873975955,-0.15906073588061206,-1.3250619707966038,1.8963506581941993,28.0,True
2020-02-15,2020Q1,2,random_walk,0.6795635968053659,0.0333073123277785,-1.3250619707966038,2.0046255676019697,,True
2020-02-15,2020Q1,2,student_t,0.5471124916552216,-0.20201369343562162,-1.3250619707966038,1.8721744624518255,30.0,True
2020-03-15,2020Q1,3,arma22,0.7797500545718175,0.21130490607188843,-1.3250619707966038,2.104812025368421,,True
2020-03-15,2020Q1,3,gaussian,0.5795929258315861,-0.14430690096039347,-1.3250619707966038,1.9046548966281898,28.0,True
2020-03-15,2020Q1,3,random_walk,0.6795635968053659,0.0333073123277785,-1.3250619707966038,2.0046255676019697,,True
2020-03-15,2020Q1,3,student_t,0.5581024369336073,-0.1824882619697021,-1.3250619707966038,1.8831644077302112,30.0,True
2020-04-15,2020Q1,4,arma22,0.7797500545718175,0.21130490607188843,-1.3250619707966038,2.104812025368421,,True
2020-04-15,2020Q1,4,gaussian,-0.06659254321879537,-1.2923608512408113,-1.3250619707966038,1.2584694275778086,28.0,True
2020-04-15,2020Q1,4,random_walk,0.6795635968053659,0.0333073123277785,-1.3250619707966038,2.0046255676019697,,True
2020-04-15,2020Q1,4,student_t,-0.051432492821528175,-1.2654265474245863,-1.3250619707966038,1.2736294779750756,30.0,True
2020-04-15,2020Q2,1,arma22,0.6813698177183897,0.03651635857470722,-8.204320604026982,8.885690421745371,,True
2020-04-15,2020Q2,1,gaussian,-1.3196889844800914,-3.518691198140331,-8.204320604026982,6.884631619546891,28.0,True
2020-04-15,2020Q2,1,random_walk,0.6795635968053659,0.0333073123277785,-8.204320604026982,8.883884200832348,,True
2020-04-15,2020Q2,1,student_t,-0.8749469233068601,-2.7285343397137076,-8.204320604026982,7.329373680720122,30.0,True
2020-05-15,2020Q2,2,arma22,0.03221878234621889,-1.0500131022874517,-8.204320604026982,8.2365393863732,,True
2020-05-15,2020Q2,2,gaussian,-7.92528189505024,-14.646916350603265,-8.204320604026982,0.2790387089767421,29.0,True
2020-05-15,2020Q2,2,random_walk,-1.3250619707966038,-3.3691853938721303,-8.204320604026982,6.8792586332303785,,True
2020-05-15,2020Q2,2,student_t,-4.7268701541194496,-9.18182162390801,-8.204320604026982,3.4774504499075327,31.0,True
2020-06-15,2020Q2,3,arma22,0.03221878234621889,-1.0500131022874517,-8.204320604026982,8.2365393863732,,True
2020-06-15,2020Q2,3,gaussian,-5.290228128777208,-10.144425861862644,-8.204320604026982,2.914092475249774,29.0,True
2020-06-15,2020Q2,3,random_walk,-1.3250619707966038,-3.3691853938721303,-8.204320604026982,6.8792586332303785,,True
2020-06-15,2020Q2,3,student_t,-4.525565568350595,-8.83785445543308,-8.204320604026982,3.678755035676387,31.0,True
2020-07-15,2020Q2,4,arma22,0.03221878234621889,-1.0500131022874517,-8.204320604026982,8.2365393863732,,True
2020-07-15,2020Q2,4,gaussian,-4.6735662952421535,-9.09074184379876,-8.204320604026982,3.5307543087848288,29.0,True
2020-07-15,2020Q2,4,random_walk,-1.3250619707966038,-3.3691853938721303,-8.204320604026982,6.8792586332303785,,True
2020-07-15,2020Q2,4,student_t,-3.988652220168596,-7.920435890996528,-8.204320604026982,4.215668383858386,31.0,True
2020-07-15,2020Q3,1,arma22,0.05008128407931045,-1.0194916210229117,7.475749636244799,-7.425668352165488,,True
2020-07-15,2020Q3,1,gaussian,2.996331829232551,4.014737747192883,7.475749636244799,-4.479417807012247,29.0,True
2020-07-15,2020Q3,1,random_walk,-1.3250619707966038,-3.3691853938721303,7.475749636244799,-8.800811607041403,,True
2020-07-15,2020Q3,1,student_t,2.470283387626994,3.1158839419075934,7.475749636244799,-5.005466248617805,31.0,True
2020-08-15,2020Q3,2,arma22,-5.915030871826991,-6.882508391894804,7.475749636244799,-13.390780508071789,,True
2020-08-15,2020Q3,2,gaussian,4.864930139103996,4.532823744716963,7.475749636244799,-2.6108194971408025,29.0,True
2020-08-15,2020Q3,2,random_walk,-8.204320604026982,-9.306728908416043,7.475749636244799,-15.680070240271782,,True
2020-08-15,2020Q3,2,student_t,3.793115211834604,3.3978360233929283,7.475749636244799,-3.6826344244101947,31.0,True
2020-09-15,2020Q3,3,arma22,-5.915030871826991,-6.882508391894804,7.475749636244799,-13.390780508071789,,True
2020-09-15,2020Q3,3,gaussian,5.225781476488955,4.91494366741547,7.475749636244799,-2.249968159755843,29.0,True
2020-09-15,2020Q3,3,random_walk,-8.204320604026982,-9.306728908416043,7.475749636244799,-15.680070240271782,,True
2020-09-15,2020Q3,3,student_t,4.144684133363165,3.7701264244518393,7.475749636244799,-3.331065502881634,30.0,True
2020-10-15,2020Q3,4,arma22,-5.915030871826991,-6.882508391894804,7.475749636244799,-13.390780508071789,,True
2020-10-15,2020Q3,4,gaussian,5.3266965365951275,5.021806663258402,7.475749636244799,-2.149053099649671,29.0,True
2020-10-15,2020Q3,4,random_walk,-8.204320604026982,-9.306728908416043,7.475749636244799,-15.680070240271782,,True
2020-10-15,2020Q3,4,student_t,4.199756585070971,3.8284448476061197,7.475749636244799,-3.2759930511738276,30.0,True
2020-10-15,2020Q4,1,arma22,-4.645159979394245,-5.537791282710801,1.127138965704333,-5.772298945098578,,True
2020-10-15,2020Q4,1,gaussian,0.4963560387758227,-0.0932342037374572,1.127138965704333,-0.6307829269285102,29.0,True
2020-10-15,2020Q4,1,random_walk,-8.204320604026982,-9.306728908416043,1.127138965704333,-9.331459569731315,,True
2020-10-15,2020Q4,1,student_t,0.538171012543243,-0.04895465454847664,1.127138965704333,-0.58896795316109,31.0,True
2020-11-15,2020Q4,2,arma22,-2.4020139157054228,-2.7501077169064927,1.127138965704333,-3.5291528814097557,,True
2020-11-15,2020Q4,2,gaussian,1.259076348995936,0.5677504974629962,1.127138965704333,0.1319373832916031,29.0,True
2020-11-15,2020Q4,2,random_walk,7.475749636244799,6.201602448893238,1.127138965704333,6.348610670540466,,True
2020-11-15,2020Q4,2,student_t,1.1327981042077524,0.4533110049964501,1.127138965704333,0.005659138503419481,30.0,True
2020-12-15,2020Q4,3,arma22,-2.4020139157054228,-2.7501077169064927,1.127138965704333,-3.5291528814097557,,True
2020-12-15,2020Q4,3,gaussian,1.488004770203597,0.7752165766607005,1.127138965704333,0.3608658044992641,29.0,True
2020-12-15,2020Q4,3,random_walk,7.475749636244799,6.201602448893238,1.127138965704333,6.348610670540466,,True
2020-12-15,2020Q4,3,student_t,1.3000831932552352,0.6049128958837259,1.127138965704333,0.17294422755090233,30.0,True
