LGiordani22/EM-for-Student-t-/output/forecast_realtime/csv/big/rolling_nowcast_2008-01_2009-12.csv
as_of,target_quarter,horizon_month,method,nowcast_livello,nowcast_z,gdp_realizzato,errore,n_iter,converged
2008-01-15,2007Q4,4,arma22,0.7526294520056563,-0.0407162409767944,0.6262715512194816,0.1263579007861747,,True
2008-01-15,2007Q4,4,gaussian,0.4235109353573446,-0.7045245306985638,0.6262715512194816,-0.202760615862137,43.0,True
2008-01-15,2007Q4,4,random_walk,0.5743731109307149,-0.4002464129830685,0.6262715512194816,-0.0518984402887667,,True
2008-01-15,2007Q4,4,student_t,0.4552850039764681,-0.6404385279954683,0.6262715512194816,-0.1709865472430135,26.0,True
2008-01-15,2008Q1,1,arma22,0.7154081684203317,-0.1157888830439847,-0.4276775590032144,1.1430857274235462,,True
2008-01-15,2008Q1,1,gaussian,0.6857007615417857,-0.1757065782042018,-0.4276775590032144,1.113378320545,43.0,True
2008-01-15,2008Q1,1,random_walk,0.5743731109307149,-0.4002464129830685,-0.4276775590032144,1.002050669933929,,True
2008-01-15,2008Q1,1,student_t,0.7000360112129976,-0.1467934144482099,-0.4276775590032144,1.127713570216212,26.0,True
2008-02-15,2008Q1,2,arma22,0.6885050337331193,-0.1676816720646999,-0.4276775590032144,1.1161825927363338,,True
2008-02-15,2008Q1,2,gaussian,0.6655989690669558,-0.2141152219093229,-0.4276775590032144,1.0932765280701702,42.0,True
2008-02-15,2008Q1,2,random_walk,0.6262715512194816,-0.2938369743576384,-0.4276775590032144,1.053949110222696,,True
2008-02-15,2008Q1,2,student_t,0.6763401762436896,-0.1923414084629199,-0.4276775590032144,1.104017735246904,26.0,True
2008-03-15,2008Q1,3,arma22,0.6885050337331193,-0.1676816720646999,-0.4276775590032144,1.1161825927363338,,True
2008-03-15,2008Q1,3,gaussian,0.5493306208184313,-0.4498061719887915,-0.4276775590032144,0.9770081798216456,42.0,True
2008-03-15,2008Q1,3,random_walk,0.6262715512194816,-0.2938369743576384,-0.4276775590032144,1.053949110222696,,True
2008-03-15,2008Q1,3,student_t,0.5651399502923474,-0.4177586204413829,-0.4276775590032144,0.9928175092955618,28.0,True
2008-04-15,2008Q1,4,arma22,0.6885050337331193,-0.1676816720646999,-0.4276775590032144,1.1161825927363338,,True
2008-04-15,2008Q1,4,gaussian,0.5216558039609945,-0.505906598086376,-0.4276775590032144,0.9493333629642088,43.0,True
2008-04-15,2008Q1,4,random_walk,0.6262715512194816,-0.2938369743576384,-0.4276775590032144,1.053949110222696,,True
2008-04-15,2008Q1,4,student_t,0.5430282715808514,-0.4625818474147702,-0.4276775590032144,0.970705830584066,28.0,True
2008-04-15,2008Q2,1,arma22,0.7342024888533933,-0.0750470318056908,0.5936625931315831,0.1405398957218102,,True
2008-04-15,2008Q2,1,gaussian,0.6379439947501088,-0.2701754246158123,0.5936625931315831,0.0442814016185256,43.0,True
2008-04-15,2008Q2,1,random_walk,0.6262715512194816,-0.2938369743576384,0.5936625931315831,0.0326089580878985,,True
2008-04-15,2008Q2,1,student_t,0.6365279879615198,-0.2730458531576211,0.5936625931315831,0.0428653948299366,27.0,True
2008-05-15,2008Q2,2,arma22,0.4991462849096833,-0.5120979008846328,0.5936625931315831,-0.0945163082218997,,True
2008-05-15,2008Q2,2,gaussian,0.2929505818162537,-0.9194977369759316,0.5936625931315831,-0.3007120113153294,43.0,True
2008-05-15,2008Q2,2,random_walk,-0.4276775590032144,-2.343309106699783,0.5936625931315831,-1.0213401521347976,,True
2008-05-15,2008Q2,2,student_t,0.3244714661722946,-0.8572190234651794,0.5936625931315831,-0.2691911269592885,28.0,True
2008-06-15,2008Q2,3,arma22,0.4991462849096833,-0.5120979008846328,0.5936625931315831,-0.0945163082218997,,True
2008-06-15,2008Q2,3,gaussian,0.2311097501087419,-1.0416823621811149,0.5936625931315831,-0.3625528430228412,42.0,True
2008-06-15,2008Q2,3,random_walk,-0.4276775590032144,-2.343309106699783,0.5936625931315831,-1.0213401521347976,,True
2008-06-15,2008Q2,3,student_t,0.2588072518924968,-0.9869578576567536,0.5936625931315831,-0.3348553412390863,29.0,True
2008-07-15,2008Q2,4,arma22,0.4991462849096833,-0.5120979008846328,0.5936625931315831,-0.0945163082218997,,True
2008-07-15,2008Q2,4,gaussian,0.2227719278174545,-1.058156165387817,0.5936625931315831,-0.3708906653141285,42.0,True
2008-07-15,2008Q2,4,random_walk,-0.4276775590032144,-2.343309106699783,0.5936625931315831,-1.0213401521347976,,True
2008-07-15,2008Q2,4,student_t,0.2590457208972272,-0.9864866924870508,0.5936625931315831,-0.3346168722343559,28.0,True
2008-07-15,2008Q3,1,arma22,0.3594159209966207,-0.7881760465546487,-0.5266423802783748,0.8860583012749956,,True
2008-07-15,2008Q3,1,gaussian,0.8146651159190486,0.1113017049679175,-0.5266423802783748,1.3413074961974234,42.0,True
2008-07-15,2008Q3,1,random_walk,-0.4276775590032144,-2.343309106699783,-0.5266423802783748,0.0989648212751604,,True
2008-07-15,2008Q3,1,student_t,0.8174019807948432,0.1167091809001271,-0.5266423802783748,1.344044361073218,28.0,True
2008-08-15,2008Q3,2,arma22,0.3791485873554181,-0.7493427187860568,-0.5266423802783748,0.905790967633793,,True
2008-08-15,2008Q3,2,gaussian,0.7494855512191765,-0.0140863222779257,-0.5266423802783748,1.276127931497551,42.0,True
2008-08-15,2008Q3,2,random_walk,0.5936625931315831,-0.3234527583511825,-0.5266423802783748,1.120304973409958,,True
2008-08-15,2008Q3,2,student_t,0.7569259414083995,0.0006856152085929,-0.5266423802783748,1.2835683216867744,29.0,True
2008-09-15,2008Q3,3,arma22,0.3791485873554181,-0.7493427187860568,-0.5266423802783748,0.905790967633793,,True
2008-09-15,2008Q3,3,gaussian,0.3604977116284502,-0.7863716330366375,-0.5266423802783748,0.8871400919068251,43.0,True
2008-09-15,2008Q3,3,random_walk,0.5936625931315831,-0.3234527583511825,-0.5266423802783748,1.120304973409958,,True
2008-09-15,2008Q3,3,student_t,0.3840267506396809,-0.7396577531792081,-0.5266423802783748,0.9106691309180558,31.0,True
2008-10-15,2008Q3,4,arma22,0.3791485873554181,-0.7493427187860568,-0.5266423802783748,0.905790967633793,,True
2008-10-15,2008Q3,4,gaussian,0.0603179519829567,-1.382339926557611,-0.5266423802783748,0.5869603322613316,44.0,True
2008-10-15,2008Q3,4,random_walk,0.5936625931315831,-0.3234527583511825,-0.5266423802783748,1.120304973409958,,True
2008-10-15,2008Q3,4,student_t,0.1046379582537008,-1.2943482560425577,-0.5266423802783748,0.6312803385320757,34.0,True
2008-10-15,2008Q4,1,arma22,0.756849217913847,0.0005332905809253,-2.213341273948544,2.970190491862391,,True
2008-10-15,2008Q4,1,gaussian,-0.0635369203477337,-1.6282378411750125,-2.213341273948544,2.1498043536008105,44.0,True
2008-10-15,2008Q4,1,random_walk,0.5936625931315831,-0.3234527583511825,-2.213341273948544,2.807003867080127,,True
2008-10-15,2008Q4,1,student_t,-0.0244175868062208,-1.5505714372777395,-2.213341273948544,2.1889236871423234,33.0,True
2008-11-15,2008Q4,2,arma22,0.565505578806102,-0.3427891042041018,-2.213341273948544,2.778846852754646,,True
2008-11-15,2008Q4,2,gaussian,-0.201990156703539,-1.8244188849451768,-2.213341273948544,2.011351117245005,43.0,True
2008-11-15,2008Q4,2,random_walk,-0.5266423802783748,-2.4511512309078265,-2.213341273948544,1.6866988936701692,,True
2008-11-15,2008Q4,2,student_t,-0.1153237692805887,-1.6571117656296277,-2.213341273948544,2.0980175046679554,36.0,True
2008-12-15,2008Q4,3,arma22,0.565505578806102,-0.3427891042041018,-2.213341273948544,2.778846852754646,,True
2008-12-15,2008Q4,3,gaussian,-0.5567229193097604,-2.509220898773864,-2.213341273948544,1.6566183546387836,43.0,True
2008-12-15,2008Q4,3,random_walk,-0.5266423802783748,-2.4511512309078265,-2.213341273948544,1.6866988936701692,,True
2008-12-15,2008Q4,3,student_t,-0.4191427476665238,-2.243626094640223,-2.213341273948544,1.7941985262820204,37.0,True
2009-01-15,2008Q4,4,arma22,0.565505578806102,-0.3427891042041018,-2.213341273948544,2.778846852754646,,True
2009-01-15,2008Q4,4,gaussian,-0.8281332339031279,-3.033171177969632,-2.213341273948544,1.3852080400454163,41.0,True
2009-01-15,2008Q4,4,random_walk,-0.5266423802783748,-2.4511512309078265,-2.213341273948544,1.6866988936701692,,True
2009-01-15,2008Q4,4,student_t,-0.6621312749739047,-2.712708881397296,-2.213341273948544,1.5512099989746395,39.0,True
2009-01-15,2009Q1,1,arma22,0.2403133995898954,-0.970563819943572,-1.1413631359902254,1.3816765355801208,,True
2009-01-15,2009Q1,1,gaussian,-0.086078545527921,-1.6006546513401054,-1.1413631359902254,1.0552845904623045,41.0,True
2009-01-15,2009Q1,1,random_walk,-0.5266423802783748,-2.4511512309078265,-1.1413631359902254,0.6147207557118506,,True
2009-01-15,2009Q1,1,student_t,-0.0023603208461235,-1.4390388805411216,-1.1413631359902254,1.1390028151441018,39.0,True
2009-02-15,2009Q1,2,arma22,-0.5852741629945928,-2.1730130734935544,-1.1413631359902254,0.5560889729956326,,True
2009-02-15,2009Q1,2,gaussian,-1.280055724769086,-3.3365659583055134,-1.1413631359902254,-0.1386925887788606,35.0,True
2009-02-15,2009Q1,2,random_walk,-2.213341273948544,-4.899542227174224,-1.1413631359902254,-1.0719781379583186,,True
2009-02-15,2009Q1,2,student_t,-0.8733800941040627,-2.6555049899711314,-1.1413631359902254,0.2679830418861627,40.0,True
2009-03-15,2009Q1,3,arma22,-0.5852741629945928,-2.1730130734935544,-1.1413631359902254,0.5560889729956326,,True
2009-03-15,2009Q1,3,gaussian,-1.6605220045941165,-3.973734043672428,-1.1413631359902254,-0.519158868603891,33.0,True
2009-03-15,2009Q1,3,random_walk,-2.213341273948544,-4.899542227174224,-1.1413631359902254,-1.0719781379583186,,True
2009-03-15,2009Q1,3,student_t,-1.1507297751122445,-3.1199833802935983,-1.1413631359902254,-0.0093666391220188,40.0,True
2009-04-15,2009Q1,4,arma22,-0.5852741629945928,-2.1730130734935544,-1.1413631359902254,0.5560889729956326,,True
2009-04-15,2009Q1,4,gaussian,-1.804531793418949,-4.214907693704727,-1.1413631359902254,-0.6631686574287241,34.0,True
2009-04-15,2009Q1,4,random_walk,-2.213341273948544,-4.899542227174224,-1.1413631359902254,-1.0719781379583186,,True
2009-04-15,2009Q1,4,student_t,-1.261651410903176,-3.3057441955100657,-1.1413631359902254,-0.1202882749129505,40.0,True
2009-04-15,2009Q2,1,arma22,-0.5787559561466527,-2.162097011814613,-0.178810721762801,-0.3999452343838516,,True
2009-04-15,2009Q2,1,gaussian,-0.103642391174836,-1.366422817864599,-0.178810721762801,0.0751683305879649,34.0,True
2009-04-15,2009Q2,1,random_walk,-2.213341273948544,-4.899542227174224,-0.178810721762801,-2.034530552185743,,True
2009-04-15,2009Q2,1,student_t,0.1497175557741941,-0.9421201112478218,-0.178810721762801,0.3285282775369951,40.0,True
2009-05-15,2009Q2,2,arma22,-0.84173727057029,-2.4633106156492044,-0.178810721762801,-0.662926548807489,,True
2009-05-15,2009Q2,2,gaussian,-0.0648463562125405,-1.216507625903854,-0.178810721762801,0.1139643655502604,33.0,True
2009-05-15,2009Q2,2,random_walk,-1.1413631359902254,-2.9441688904810643,-0.178810721762801,-0.9625524142274244,,True
2009-05-15,2009Q2,2,student_t,0.0244832379025047,-1.0731459222759367,-0.178810721762801,0.2032939596653057,39.0,True
2009-06-15,2009Q2,3,arma22,-0.84173727057029,-2.4633106156492044,-0.178810721762801,-0.662926548807489,,True
2009-06-15,2009Q2,3,gaussian,-0.4214016061254469,-1.7887297273404783,-0.178810721762801,-0.2425908843626459,33.0,True
2009-06-15,2009Q2,3,random_walk,-1.1413631359902254,-2.9441688904810643,-0.178810721762801,-0.9625524142274244,,True
2009-06-15,2009Q2,3,student_t,-0.2782503739341512,-1.5589917023702835,-0.178810721762801,-0.0994396521713502,40.0,True
2009-07-15,2009Q2,4,arma22,-0.84173727057029,-2.4633106156492044,-0.178810721762801,-0.662926548807489,,True
2009-07-15,2009Q2,4,gaussian,-0.5145303469211681,-1.9381885384932835,-0.178810721762801,-0.335719625158367,32.0,True
2009-07-15,2009Q2,4,random_walk,-1.1413631359902254,-2.9441688904810643,-0.178810721762801,-0.9625524142274244,,True
2009-07-15,2009Q2,4,student_t,-0.3674911072721775,-1.702210796681486,-0.178810721762801,-0.1886803855093765,39.0,True
2009-07-15,2009Q3,1,arma22,-0.4623966077526799,-1.85452106258309,0.3505771547139602,-0.8129737624666401,,True
2009-07-15,2009Q3,1,gaussian,0.523391935056495,-0.2724661309106463,0.3505771547139602,0.17281478034253472,32.0,True
2009-07-15,2009Q3,1,random_walk,-1.1413631359902254,-2.9441688904810643,0.3505771547139602,-1.4919402907041857,,True
2009-07-15,2009Q3,1,student_t,0.48686679249241016,-0.33108395756836106,0.3505771547139602,0.13628963777844993,39.0,True
2009-08-15,2009Q3,2,arma22,-0.12224607780752084,-1.2881311254954921,0.3505771547139602,-0.47282323252148106,,True
2009-08-15,2009Q3,2,gaussian,0.5424740536835264,-0.2264695517360576,0.3505771547139602,0.1918968989695662,31.0,True
2009-08-15,2009Q3,2,random_walk,-0.178810721762801,-1.3784736712914196,0.3505771547139602,-0.5293878764767612,,True
2009-08-15,2009Q3,2,student_t,0.5833755126937574,-0.16114355168780473,0.3505771547139602,0.2327983579797972,37.0,True
2009-09-15,2009Q3,3,arma22,-0.12224607780752084,-1.2881311254954921,0.3505771547139602,-0.47282323252148106,,True
2009-09-15,2009Q3,3,gaussian,0.9522608052943049,0.4280237109322254,0.3505771547139602,0.6016836505803447,31.0,True
2009-09-15,2009Q3,3,random_walk,-0.178810721762801,-1.3784736712914196,0.3505771547139602,-0.5293878764767612,,True
2009-09-15,2009Q3,3,student_t,0.885559493475111,0.32149132786908674,0.3505771547139602,0.5349823387611508,37.0,True
2009-10-15,2009Q3,4,arma22,-0.12224607780752084,-1.2881311254954921,0.3505771547139602,-0.47282323252148106,,True
2009-10-15,2009Q3,4,gaussian,1.03557429600891,0.5610883308784489,0.3505771547139602,0.6849971412949498,31.0,True
2009-10-15,2009Q3,4,random_walk,-0.178810721762801,-1.3784736712914196,0.3505771547139602,-0.5293878764767612,,True
2009-10-15,2009Q3,4,student_t,0.971272548546115,0.4583884258015522,0.3505771547139602,0.6206953938321548,37.0,True
2009-10-15,2009Q4,1,arma22,0.09268583306915756,-0.9448513902471996,1.0751135379244658,-0.9824277048553083,,True
2009-10-15,2009Q4,1,gaussian,0.905893709064693,0.35396823702418434,1.0751135379244658,-0.16921982885977283,31.0,True
2009-10-15,2009Q4,1,random_walk,-0.178810721762801,-1.3784736712914196,1.0751135379244658,-1.2539242596872668,,True
2009-10-15,2009Q4,1,student_t,0.8932097762287518,0.33371002088462143,1.0751135379244658,-0.1819037616957141,37.0,True
2009-11-15,2009Q4,2,arma22,0.3644875263055208,-0.5072219785671819,1.0751135379244658,-0.7106260116189451,,True
2009-11-15,2009Q4,2,gaussian,0.8335435670524352,0.24469628237249194,1.0751135379244658,-0.2415699708720307,31.0,True
2009-11-15,2009Q4,2,random_walk,0.3505771547139602,-0.5295209396881078,1.0751135379244658,-0.7245363832105056,,True
2009-11-15,2009Q4,2,student_t,0.8067231393938857,0.20170191161337817,1.0751135379244658,-0.2683903985305801,38.0,True
2009-12-15,2009Q4,3,arma22,0.3644875263055208,-0.5072219785671819,1.0751135379244658,-0.7106260116189451,,True
2009-12-15,2009Q4,3,gaussian,0.988484985490403,0.4930744542299226,1.0751135379244658,-0.08662855243406287,31.0,True
2009-12-15,2009Q4,3,random_walk,0.3505771547139602,-0.5295209396881078,1.0751135379244658,-0.7245363832105056,,True
2009-12-15,2009Q4,3,student_t,0.9289758742892549,0.3976786304533427,1.0751135379244658,-0.14613766363521097,38.0,True
