LGiordani22/EM-for-Student-t-/output/forecast_realtime/csv/small/rolling_nowcast_2018-01_2019-12.csv
as_of,target_quarter,horizon_month,method,nowcast_livello,nowcast_z,gdp_realizzato,errore,n_iter,converged
2018-01-15,2017Q4,4,arma22,0.6754028390740621,0.032881475913970504,1.1207427769393874,-0.44533993786532533,,True
2018-01-15,2017Q4,4,gaussian,1.0723699144889804,0.7212899402682488,1.1207427769393874,-0.04837286245040695,51.0,True
2018-01-15,2017Q4,4,random_walk,0.785431525684821,0.2236899431034994,1.1207427769393874,-0.3353112512545664,,True
2018-01-15,2017Q4,4,student_t,1.074683865382736,0.7253027249045978,1.1207427769393874,-0.04605891155665143,90.0,True
2018-01-15,2018Q1,1,arma22,0.695826861994881,0.06830020740489237,0.8101194549169577,-0.11429259292207672,,True
2018-01-15,2018Q1,1,gaussian,0.7396609414863241,0.14431596089665835,0.8101194549169577,-0.07045851343063358,51.0,True
2018-01-15,2018Q1,1,random_walk,0.785431525684821,0.2236899431034994,0.8101194549169577,-0.024687929232136696,,True
2018-01-15,2018Q1,1,student_t,0.7444818982244872,0.15267632030774653,0.8101194549169577,-0.06563755669247051,90.0,True
2018-02-15,2018Q1,2,arma22,0.828412296412765,0.2925245097710712,0.8101194549169577,0.018292841495807344,,True
2018-02-15,2018Q1,2,gaussian,0.6655590503123963,0.009724091633702579,0.8101194549169577,-0.14456040460456143,51.0,True
2018-02-15,2018Q1,2,random_walk,1.1207427769393874,0.8001667220501885,0.8101194549169577,0.3106233220224297,,True
2018-02-15,2018Q1,2,student_t,0.6506620259511295,-0.016145117726559993,0.8101194549169577,-0.15945742896582815,91.0,True
2018-03-15,2018Q1,3,arma22,0.828412296412765,0.2925245097710712,0.8101194549169577,0.018292841495807344,,True
2018-03-15,2018Q1,3,gaussian,0.8145109075150717,0.2683842565854828,0.8101194549169577,0.004391452598114021,51.0,True
2018-03-15,2018Q1,3,random_walk,1.1207427769393874,0.8001667220501885,0.8101194549169577,0.3106233220224297,,True
2018-03-15,2018Q1,3,student_t,0.804398076508686,0.2508229680902211,0.8101194549169577,-0.005721378408271693,92.0,True
2018-04-15,2018Q1,4,arma22,0.828412296412765,0.2925245097710712,0.8101194549169577,0.018292841495807344,,True
2018-04-15,2018Q1,4,gaussian,0.8211958051339855,0.27999281758812417,0.8101194549169577,0.011076350217027797,51.0,True
2018-04-15,2018Q1,4,random_walk,1.1207427769393874,0.8001667220501885,0.8101194549169577,0.3106233220224297,,True
2018-04-15,2018Q1,4,student_t,0.823605184346824,0.28417678975421956,0.8101194549169577,0.013485729429866256,92.0,True
2018-04-15,2018Q2,1,arma22,0.8159650403970256,0.2709094097334304,0.5294212303768475,0.28654381002017804,,True
2018-04-15,2018Q2,1,gaussian,0.7986803373893852,0.2408939120077768,0.5294212303768475,0.26925910701253764,51.0,True
2018-04-15,2018Q2,1,random_walk,1.1207427769393874,0.8001667220501885,0.5294212303768475,0.5913215465625399,,True
2018-04-15,2018Q2,1,student_t,0.805189270090121,0.2521969037102671,0.5294212303768475,0.27576803971327346,92.0,True
2018-05-15,2018Q2,2,arma22,0.8105068056312977,0.26039180452564464,0.5294212303768475,0.2810855752544502,,True
2018-05-15,2018Q2,2,gaussian,0.998269300911411,0.5876058676176741,0.5294212303768475,0.46884807053456345,51.0,True
2018-05-15,2018Q2,2,random_walk,0.8101194549169577,0.25971676768779417,0.5294212303768475,0.2806982245401102,,True
2018-05-15,2018Q2,2,student_t,0.9608915909544373,0.5224676602996969,0.5294212303768475,0.4314703605775898,92.0,True
2018-06-15,2018Q2,3,arma22,0.8105068056312977,0.26039180452564464,0.5294212303768475,0.2810855752544502,,True
2018-06-15,2018Q2,3,gaussian,0.8141852136796162,0.26680217333441586,0.5294212303768475,0.28476398330276864,51.0,True
2018-06-15,2018Q2,3,random_walk,0.8101194549169577,0.25971676768779417,0.5294212303768475,0.2806982245401102,,True
2018-06-15,2018Q2,3,student_t,0.846247478946605,0.32267714492708954,0.5294212303768475,0.3168262485697575,91.0,True
2018-07-15,2018Q2,4,arma22,0.8105068056312977,0.26039180452564464,0.5294212303768475,0.2810855752544502,,True
2018-07-15,2018Q2,4,gaussian,0.844740531874999,0.32005098535550314,0.5294212303768475,0.31531930149815146,52.0,True
2018-07-15,2018Q2,4,random_walk,0.8101194549169577,0.25971676768779417,0.5294212303768475,0.2806982245401102,,True
2018-07-15,2018Q2,4,student_t,0.8774912078326268,0.3771256515880672,0.5294212303768475,0.3480699774557793,96.0,True
2018-07-15,2018Q3,1,arma22,0.7273233842264762,0.11542789541716246,0.621760482522582,0.10556290170389426,,True
2018-07-15,2018Q3,1,gaussian,0.729567125439998,0.11933806756260719,0.621760482522582,0.10780664291741604,52.0,True
2018-07-15,2018Q3,1,random_walk,0.8101194549169577,0.25971676768779417,0.621760482522582,0.1883589723943757,,True
2018-07-15,2018Q3,1,student_t,0.7015706356588304,0.07054853076004314,0.621760482522582,0.0798101531362484,96.0,True
2018-08-15,2018Q3,2,arma22,0.6435494514453107,-0.028956089864027743,0.621760482522582,0.021788968922728746,,True
2018-08-15,2018Q3,2,gaussian,0.723989836601548,0.11172967608136397,0.621760482522582,0.10222935407896605,52.0,True
2018-08-15,2018Q3,2,random_walk,0.5294212303768475,-0.22856000978330895,0.621760482522582,-0.09233925214573446,,True
2018-08-15,2018Q3,2,student_t,0.7089984250248307,0.08551052986299752,0.621760482522582,0.0872379425022487,96.0,True
2018-09-15,2018Q3,3,arma22,0.6435494514453107,-0.028956089864027743,0.621760482522582,0.021788968922728746,,True
2018-09-15,2018Q3,3,gaussian,0.762694091809818,0.17942126878999426,0.621760482522582,0.14093360928723597,52.0,True
2018-09-15,2018Q3,3,random_walk,0.5294212303768475,-0.22856000978330895,0.621760482522582,-0.09233925214573446,,True
2018-09-15,2018Q3,3,student_t,0.758496535730863,0.17207997634193425,0.621760482522582,0.13673605320828097,96.0,True
2018-10-15,2018Q3,4,arma22,0.6435494514453107,-0.028956089864027743,0.621760482522582,0.021788968922728746,,True
2018-10-15,2018Q3,4,gaussian,0.7550246920913195,0.16600791464403053,0.621760482522582,0.13326420956873752,52.0,True
2018-10-15,2018Q3,4,random_walk,0.5294212303768475,-0.22856000978330895,0.621760482522582,-0.09233925214573446,,True
2018-10-15,2018Q3,4,student_t,0.7526415970959155,0.16184001385516858,0.621760482522582,0.1308811145733335,95.0,True
2018-10-15,2018Q4,1,arma22,0.6268057021857889,-0.05823997736404624,0.141543998318383,0.4852617038674059,,True
2018-10-15,2018Q4,1,gaussian,0.70256446077339,0.07425788373231178,0.141543998318383,0.561020462455007,52.0,True
2018-10-15,2018Q4,1,random_walk,0.5294212303768475,-0.22856000978330895,0.141543998318383,0.3878772320584645,,True
2018-10-15,2018Q4,1,student_t,0.6927783385104486,0.057142499419779044,0.141543998318383,0.5512343401920656,96.0,True
2018-11-15,2018Q4,2,arma22,0.620276471104336,-0.06942082841182594,0.141543998318383,0.47873247278595304,,True
2018-11-15,2018Q4,2,gaussian,0.765132563505849,0.1848708063445024,0.141543998318383,0.623588565187466,52.0,True
2018-11-15,2018Q4,2,random_walk,0.621760482522582,-0.06681567951345019,0.141543998318383,0.480216484204199,,True
2018-11-15,2018Q4,2,student_t,0.7326521566347338,0.12785217755315798,0.141543998318383,0.5911081583163509,95.0,True
2018-12-15,2018Q4,3,arma22,0.620276471104336,-0.06942082841182594,0.141543998318383,0.47873247278595304,,True
2018-12-15,2018Q4,3,gaussian,0.67593450459823,0.02828560622852306,0.141543998318383,0.5343905062798471,52.0,True
2018-12-15,2018Q4,3,random_walk,0.621760482522582,-0.06681567951345019,0.141543998318383,0.480216484204199,,True
2018-12-15,2018Q4,3,student_t,0.6922353802071349,0.05690142926935428,0.141543998318383,0.550691381888752,95.0,True
2019-01-15,2018Q4,4,arma22,0.620276471104336,-0.06942082841182594,0.141543998318383,0.47873247278595304,,True
2019-01-15,2018Q4,4,gaussian,0.7789499309760731,0.2091268863186404,0.141543998318383,0.6374059326576902,52.0,True
2019-01-15,2018Q4,4,random_walk,0.621760482522582,-0.06681567951345019,0.141543998318383,0.480216484204199,,True
2019-01-15,2018Q4,4,student_t,0.7793097935078308,0.2097586169553784,0.141543998318383,0.6377657951894478,95.0,True
2019-01-15,2019Q1,1,arma22,0.6457801849902107,-0.02464962832712029,0.6223772907267389,0.023402894263471863,,True
2019-01-15,2019Q1,1,gaussian,0.7836475884561136,0.21737351909963284,0.6223772907267389,0.16127029772937473,52.0,True
2019-01-15,2019Q1,1,random_walk,0.621760482522582,-0.06681567951345019,0.6223772907267389,-0.0006168082041568823,,True
2019-01-15,2019Q1,1,student_t,0.7200466864193714,0.10572355614142077,0.6223772907267389,0.09766939569263255,95.0,True
2019-02-15,2019Q1,2,arma22,0.5034852251900132,-0.2679323604919541,0.6223772907267389,-0.11889206553672571,,True
2019-02-15,2019Q1,2,gaussian,0.3950855478031299,-0.4583513651923196,0.6223772907267389,-0.22729174292360899,52.0,True
2019-02-15,2019Q1,2,random_walk,0.141543998318383,-0.9037321141659869,0.6223772907267389,-0.4808332924083559,,True
2019-02-15,2019Q1,2,student_t,0.414666084404543,-0.42395544833148835,0.6223772907267389,-0.20771120632219586,99.0,True
2019-03-15,2019Q1,3,arma22,0.5034852251900132,-0.2679323604919541,0.6223772907267389,-0.11889206553672571,,True
2019-03-15,2019Q1,3,gaussian,0.5393845724404569,-0.20487019889137478,0.6223772907267389,-0.08299271828628196,52.0,True
2019-03-15,2019Q1,3,random_walk,0.141543998318383,-0.9037321141659869,0.6223772907267389,-0.4808332924083559,,True
2019-03-15,2019Q1,3,student_t,0.5489261258025252,-0.18810914260136471,0.6223772907267389,-0.07345116492421366,99.0,True
2019-04-15,2019Q1,4,arma22,0.5034852251900132,-0.2679323604919541,0.6223772907267389,-0.11889206553672571,,True
2019-04-15,2019Q1,4,gaussian,0.468269101416899,-0.3297943456927764,0.6223772907267389,-0.15410818930983988,52.0,True
2019-04-15,2019Q1,4,random_walk,0.141543998318383,-0.9037321141659869,0.6223772907267389,-0.4808332924083559,,True
2019-04-15,2019Q1,4,student_t,0.4801265259814598,-0.3089651417844026,0.6223772907267389,-0.1422507647452791,98.0,True
2019-04-15,2019Q2,1,arma22,0.4884567278269334,-0.2943319917362994,0.8316777932895647,-0.3432210654626313,,True
2019-04-15,2019Q2,1,gaussian,0.5674133475073182,-0.1556337843571007,0.8316777932895647,-0.2642644457822465,52.0,True
2019-04-15,2019Q2,1,random_walk,0.141543998318383,-0.9037321141659869,0.8316777932895647,-0.6901337949711817,,True
2019-04-15,2019Q2,1,student_t,0.5486214218074137,-0.18864439725226453,0.8316777932895647,-0.283056371482151,98.0,True
2019-05-15,2019Q2,2,arma22,0.5236033804044965,-0.2330160643948329,0.8316777932895647,-0.3080744128850682,,True
2019-05-15,2019Q2,2,gaussian,0.3144021347045823,-0.6018607781705428,0.8316777932895647,-0.5172756585849825,52.0,True
2019-05-15,2019Q2,2,random_walk,0.6223772907267389,-0.058866839998842325,0.8316777932895647,-0.20930050256282584,,True
2019-05-15,2019Q2,2,student_t,0.34519786403879343,-0.547564533739547,0.8316777932895647,-0.48647992925077127,99.0,True
2019-06-15,2019Q2,3,arma22,0.5236033804044965,-0.2330160643948329,0.8316777932895647,-0.3080744128850682,,True
2019-06-15,2019Q2,3,gaussian,0.3951741764608246,-0.4594508201275774,0.8316777932895647,-0.4365036168287401,52.0,True
2019-06-15,2019Q2,3,random_walk,0.6223772907267389,-0.058866839998842325,0.8316777932895647,-0.20930050256282584,,True
2019-06-15,2019Q2,3,student_t,0.4227221865961973,-0.4108806604257221,0.8316777932895647,-0.4089556066933674,98.0,True
2019-07-15,2019Q2,4,arma22,0.5236033804044965,-0.2330160643948329,0.8316777932895647,-0.3080744128850682,,True
2019-07-15,2019Q2,4,gaussian,0.3783760767487368,-0.4890677101205197,0.8316777932895647,-0.4533017165408279,52.0,True
2019-07-15,2019Q2,4,random_walk,0.6223772907267389,-0.058866839998842325,0.8316777932895647,-0.20930050256282584,,True
2019-07-15,2019Q2,4,student_t,0.402749912862357,-0.4460939669438652,0.8316777932895647,-0.4289278804272077,95.0,True
2019-07-15,2019Q3,1,arma22,0.6302900872285828,-0.04491571293397481,1.1632102580909631,-0.5329201708623803,,True
2019-07-15,2019Q3,1,gaussian,0.6492434613636582,-0.011498838027007189,1.1632102580909631,-0.5139667967273049,53.0,True
2019-07-15,2019Q3,1,random_walk,0.6223772907267389,-0.058866839998842325,1.1632102580909631,-0.5408329673642243,,True
2019-07-15,2019Q3,1,student_t,0.6105994888590434,-0.07963239492784405,1.1632102580909631,-0.5526107692319198,95.0,True
2019-08-15,2019Q3,2,arma22,0.7211779558797367,0.11345722573699715,1.1632102580909631,-0.44203230221122647,,True
2019-08-15,2019Q3,2,gaussian,0.5743053155296785,-0.14635441415538294,1.1632102580909631,-0.5889049425612847,53.0,True
2019-08-15,2019Q3,2,random_walk,0.8316777932895647,0.308926878198225,1.1632102580909631,-0.3315324648013984,,True
2019-08-15,2019Q3,2,student_t,0.5606641104661054,-0.1704851429911143,1.1632102580909631,-0.6025461476248577,95.0,True
2019-09-15,2019Q3,3,arma22,0.7211779558797367,0.11345722573699715,1.1632102580909631,-0.44203230221122647,,True
2019-09-15,2019Q3,3,gaussian,0.678426211452245,0.03783115405003768,1.1632102580909631,-0.4847840466387181,53.0,True
2019-09-15,2019Q3,3,random_walk,0.8316777932895647,0.308926878198225,1.1632102580909631,-0.3315324648013984,,True
2019-09-15,2019Q3,3,student_t,0.6727683224796269,0.02782258193748256,1.1632102580909631,-0.4904419356113362,95.0,True
2019-10-15,2019Q3,4,arma22,0.7211779558797367,0.11345722573699715,1.1632102580909631,-0.44203230221122647,,True
2019-10-15,2019Q3,4,gaussian,0.6230232503141431,-0.06017439792939437,1.1632102580909631,-0.54018700777682,52.0,True
2019-10-15,2019Q3,4,random_walk,0.8316777932895647,0.308926878198225,1.1632102580909631,-0.3315324648013984,,True
2019-10-15,2019Q3,4,student_t,0.6199295957966158,-0.06564694510729997,1.1632102580909631,-0.5432806622943473,95.0,True
2019-10-15,2019Q4,1,arma22,0.7136285217055671,0.10010258821992345,0.6795635968053659,0.03406492490020119,,True
2019-10-15,2019Q4,1,gaussian,0.5023925432093135,-0.27356514081781785,0.6795635968053659,-0.17717105359605245,52.0,True
2019-10-15,2019Q4,1,random_walk,0.8316777932895647,0.308926878198225,0.6795635968053659,0.15211419648419877,,True
2019-10-15,2019Q4,1,student_t,0.5183377256769954,-0.2453587710307847,0.6795635968053659,-0.1612258711283705,95.0,True
2019-11-15,2019Q4,2,arma22,0.8461641089957013,0.32835371879506225,0.6795635968053659,0.16660051219033534,,True
2019-11-15,2019Q4,2,gaussian,0.2726669832995474,-0.6868898423615288,0.6795635968053659,-0.4068966135058185,52.0,True
2019-11-15,2019Q4,2,random_walk,1.1632102580909631,0.8896103442188362,0.6795635968053659,0.4836466612855972,,True
2019-11-15,2019Q4,2,student_t,0.28987912346295674,-0.656419742876001,0.6795635968053659,-0.3896844733424092,95.0,True
2019-12-15,2019Q4,3,arma22,0.8461641089957013,0.32835371879506225,0.6795635968053659,0.16660051219033534,,True
2019-12-15,2019Q4,3,gaussian,0.5068384322959523,-0.2723436395157497,0.6795635968053659,-0.17272516450941366,52.0,True
2019-12-15,2019Q4,3,random_walk,1.1632102580909631,0.8896103442188362,0.6795635968053659,0.4836466612855972,,True
2019-12-15,2019Q4,3,student_t,0.5012135849550919,-0.2823011262919306,0.6795635968053659,-0.178350011850274,96.0,True
